!!!OTL: 197d. Der todte Braeutigam.
!!!ODT: 1856
!!!ARE: Europa, Mitteleuropa, Deutschland, Mittel - Franken, Ziegelanger
!!!SCT: E0197
!!!TXL: @@DE
!!!YEM: Copyright 1995, estate of Helmut Schaffrath.
**kern	**text
*ICvox	*
*M4/4	*
*met(c)	*
*k[f#]	*
*G:	*
!LO:TX:a:t=Aus Mittelfranken (Ʒiegelanger) 1856.	!
{8gL	Es
8bJ	.
=1	=1
4dd	gieng
4dd	ein
4dd	Knab
4b	ſpa-
=2	=2
4ee	-ʒie-
4dd	-ren
4r}	.
{8bL	ʒu
8ddJ	.
=3	=3
8ddL	ſei-
8ccJ	.
8a	-ner
8cc	ge-
8ccL	-lieb-
8bJ	.
8gL	-ten
8bJ	.
=4	=4
(4b/	Braut
4a)	.
4r}	.
{8a	Her-
8b	-ʒigs
=5	=5
4cc	Schatʒ-
4cc	-le,
4cc	biſt
8bL	du
8aJ	.
=6	=6
8bL	drin-
8ddJ	.
4dd	-ne?
4r}	.
{8bL	Steh
8ddJ	.
=7	=7
8ddL	auf
8ccJ	.
8aL	und
8ccJ	.
4b/	laß
4a	mich
=8	=8
2g	ein!
4r}	.
==	==
!!!AGN: erzaehlendes Volks - Lied, Tod, Toten - Sage, Grabesstimme
!!!ONB: ESAC (Essen Associative Code) Database: ERK1
!!!AMT: simple quadruple
!!!AIN: vox
!!!EED: Helmut Schaffrath
!!!EEV: 1.0
!!!GTL: Todtensagen (Todesahnung, Geisterliebe, Grabesstimmen)
!!!URL-scan: https://rosdok.uni-rostock.de/mcrviewer/recordIdentifier/rosdok_ppn745146120/iview2/phys_0663.iview2?x=-128.7727644188933&y=976.5138104455546&scale=0.5870222003877484&rotation=0&layout=singlePageLayout
!!!ENC: Anna Maria Matuszewska
!!!EEV: 2024/05/12
*-	*-
